SVG/unlock.svg

<?xml version="1.0" encoding="utf-8"?>
<!-- Generated by IcoMoon.io -->
<!DOCTYPE svg PUBLIC "-//W3C//DTD SVG 1.1//EN" "http://www.w3.org/Graphics/SVG/1.1/DTD/svg11.dtd">
<svg version="1.1" xmlns="http://www.w3.org/2000/svg" xmlns:xlink="http://www.w3.org/1999/xlink" width="13" height="14" viewBox="0 0 13 14">
<path fill="#444444" d="M13 4.5v2q0 0.203-0.148 0.352t-0.352 0.148h-0.5q-0.203 0-0.352-0.148t-0.148-0.352v-2q0-0.828-0.586-1.414t-1.414-0.586-1.414 0.586-0.586 1.414v1.5h0.75q0.312 0 0.531 0.219t0.219 0.531v4.5q0 0.312-0.219 0.531t-0.531 0.219h-7.5q-0.312 0-0.531-0.219t-0.219-0.531v-4.5q0-0.312 0.219-0.531t0.531-0.219h5.25v-1.5q0-1.445 1.027-2.473t2.473-1.027 2.473 1.027 1.027 2.473z"></path>
</svg>

<svg xmlns="http://www.w3.org/2000/svg" viewBox="0 0 13 14"><path d="M13 4.5v2q0 .203-.148.352T12.5 7H12q-.203 0-.352-.148T11.5 6.5v-2q0-.828-.586-1.414T9.5 2.5t-1.414.586T7.5 4.5V6h.75q.312 0 .53.22t.22.53v4.5q0 .312-.22.53t-.53.22H.75q-.312 0-.53-.22T0 11.25v-4.5q0-.312.22-.53T.75 6H6V4.5q0-1.445 1.027-2.473T9.5 1t2.473 1.027T13 4.5z" /></svg>
